svgs/thin/om.svg

<svg xmlns="http://www.w3.org/2000/svg" viewBox="0 0 512 512"><!--! Font Awesome Pro 6.0.0-alpha3 by @fontawesome - https://fontawesome.com License - https://fontawesome.com/license (Commercial License) --><path d="M355.1 106.7c3.609 3.5 8.233 5.224 12.89 5.224c4.688 0 9.392-1.739 13.08-5.317l21.81-21.82C406.2 81.19 408 76.63 408 71.89c0-4.734-1.828-9.299-5.344-13.03l-21.81-21.82c-7.094-6.658-18.41-6.846-25.88 .1875l-21.81 21.82C329.8 62.59 328 67.16 328 71.89c0 4.736 1.828 9.301 5.344 13.04L355.1 106.7zM344.7 70.17l21.44-21.44c1.125-1.062 2.875-.875 3.625-.1875l21.44 21.44C391.7 70.55 392 71.25 392 71.89s-.3125 1.346-.6562 1.721l-21.53 21.54c-1.031 1.002-2.562 1.002-3.594 .0313l-21.38-21.38C344.3 73.24 344 72.53 344 71.89S344.3 70.55 344.7 70.17zM424 199.9h-2.75c-30.86 0-61.08 12.52-82.91 34.35C319.5 253.1 293.4 263.9 266.8 263.9H197.1C223.3 247.4 240 219.5 240 187.9c0-50.75-43.06-92.02-96-92.02c-30.39 0-58.34 13.36-76.69 36.65C64.58 136 65.17 141.1 68.64 143.8c3.5 2.75 8.5 2.172 11.23-1.328C95.17 123 118.5 111.9 144 111.9c44.11 0 80 34.1 80 76.02C224 229.8 188.1 263.9 144 263.9c-4.422 0-8 3.58-8 8.002c0 4.424 3.578 8.002 8 8.002H160c62.8 0 112 40.42 112 92.03c0 50.75-51.78 92.02-115.4 92.02c-60.89 0-115.6-45.84-124.7-104.4c-.6719-4.361-4.75-7.252-9.125-6.689c-4.375 .6719-7.359 4.768-6.688 9.127C26.3 428.2 88 480 156.6 480C229 480 288 431.5 288 371.1c0-39.56-24.2-73.22-60.82-92.03h39.57c30.86 0 61.08-12.52 82.91-34.35c18.84-18.85 44.94-29.66 71.59-29.66H424c30.88 0 55.1 25.07 55.1 55.95L480 375.1c0 30.88-25.12 56.02-56 56.02h-24.45c-21.34 0-40.53-11.86-50.08-30.96l-14.31-28.63c-1.984-3.955-6.766-5.564-10.73-3.58c-3.953 1.984-5.547 6.783-3.578 10.74l14.31 28.63c12.28 24.55 36.95 39.81 64.39 39.81H424c39.7 0 72-32.31 72-72.02V271.9C496 232.2 463.7 199.9 424 199.9zM285.1 135.4l39.67 15.43c15.55 6.049 31.81 9.033 48.08 9.033c23.53 0 47.05-6.268 68.27-18.64l10.91-6.361c3.812-2.221 5.109-7.127 2.875-10.94c-2.234-3.828-7.172-5.156-10.94-2.875l-10.91 6.361c-32.11 18.71-68.45 21.72-102.5 8.518L290.9 120.5c-4.109-1.656-8.75 .4375-10.34 4.562C278.9 129.1 280.1 133.8 285.1 135.4z"/></svg>

<svg xmlns="http://www.w3.org/2000/svg" viewBox="0 0 512 512"><!-- Font Awesome Pro 6.0.0-alpha2 by @fontawesome - https://fontawesome.com License - https://fontawesome.com/license (Commercial License) --><path d="M355.063 106.652C358.673 110.152 363.313 111.92 367.969 111.92C372.657 111.92 377.344 110.137 381.032 106.559L402.844 84.74C406.173 81.193 408.001 76.629 408.001 71.893C408.001 67.158 406.173 62.594 402.657 58.859L380.844 37.041C373.751 30.383 362.438 30.195 354.969 37.229L333.157 59.047C329.829 62.594 328.001 67.158 328.001 71.893C328.001 76.629 329.829 81.193 333.344 84.928L355.063 106.652ZM344.657 70.174L366.094 48.73C367.219 47.668 368.969 47.855 369.719 48.543L391.157 69.986C391.688 70.549 392.001 71.252 392.001 71.893S391.688 73.238 391.344 73.613L369.813 95.148C368.782 96.15 367.251 96.15 366.219 95.18L344.844 73.801C344.313 73.238 344.001 72.533 344.001 71.893S344.313 70.549 344.657 70.174ZM424.001 199.926H421.251C390.391 199.926 360.173 212.445 338.344 234.279C319.501 253.129 293.407 263.943 266.751 263.943H197.977C223.313 247.361 240.001 219.49 240.001 187.924C240.001 137.176 196.938 95.9 144.001 95.9C113.61 95.9 85.657 109.262 67.313 132.549C64.579 136.02 65.173 141.053 68.641 143.787C72.141 146.537 77.141 145.959 79.876 142.459C95.173 123.031 118.548 111.904 144.001 111.904C188.11 111.904 224.001 146.006 224.001 187.924C224.001 229.84 188.11 263.943 144.001 263.943C139.579 263.943 136.001 267.523 136.001 271.945C136.001 276.369 139.579 279.947 144.001 279.947H160.001C222.798 279.947 272.001 320.365 272.001 371.973C272.001 422.719 220.219 463.996 156.579 463.996C95.688 463.996 40.938 418.156 31.907 359.641C31.235 355.279 27.157 352.389 22.782 352.951C18.407 353.623 15.423 357.719 16.094 362.078C26.298 428.205 88.001 480 156.579 480C229.048 480 288.001 431.535 288.001 371.973C288.001 332.416 263.798 298.754 227.176 279.947H266.751C297.61 279.947 327.829 267.43 349.657 245.596C368.501 226.746 394.594 215.932 421.251 215.932H424.001C454.876 215.932 480.001 241.062 480.001 271.945V375.973C480.001 406.855 454.876 431.988 424.001 431.988H399.548C378.204 431.988 359.016 420.125 349.469 401.025L335.157 372.395C333.173 368.439 328.391 366.83 324.423 368.814C320.469 370.799 318.876 375.598 320.844 379.553L335.157 408.184C347.438 432.738 372.11 447.992 399.548 447.992H424.001C463.704 447.992 496.001 415.686 496.001 375.973V271.945C496.001 232.232 463.704 199.926 424.001 199.926ZM285.11 135.363L324.782 150.789C340.329 156.838 356.594 159.822 372.86 159.822C396.391 159.822 419.907 153.555 441.126 141.178L452.032 134.816C455.844 132.596 457.141 127.689 454.907 123.875C452.673 120.047 447.735 118.719 443.969 121L433.063 127.361C400.954 146.068 364.61 149.086 330.579 135.879L290.891 120.453C286.782 118.797 282.141 120.891 280.548 125.016C278.938 129.127 280.985 133.77 285.11 135.363Z"/></svg>
